packages/sights/assets/overlays/QqBpHiVP.svg

<svg width="500" height="375" viewBox="0 0 500 375" fill="none" xmlns="http://www.w3.org/2000/svg">
<path d="M163.201 16L75.4512 77.78C75.4512 77.78 44.5712 90.62 31.1212 99.78V140.44L34.5112 150.55L18.0012 181.73L33.1112 251.29L39.9912 260.92C39.9912 260.92 59.7112 277.92 68.4212 282.47L95.9412 290.73L99.4512 287.36L98.3812 285.22L102.931 278.78" stroke="white" stroke-miterlimit="10"/>
<path d="M482.551 282.93L300.011 290.73H296.501L294.661 288.74V284.46L288.551 273.15H284.571" stroke="white" stroke-miterlimit="10"/>
<path d="M193.58 359.52C143.328 359.52 102.59 319.893 102.59 271.01C102.59 222.127 143.328 182.5 193.58 182.5C243.833 182.5 284.57 222.127 284.57 271.01C284.57 319.893 243.833 359.52 193.58 359.52Z" stroke="white" stroke-miterlimit="10"/>
<path d="M297.511 281.94C297.511 281.94 307.811 186.62 205.081 175.14C205.081 175.14 85.6914 166.27 90.5914 281.92" stroke="white" stroke-miterlimit="10"/>
<path d="M195.451 16C195.451 16 184.901 20.15 179.171 25L117.951 68.11C117.951 68.11 113.361 73.38 101.211 74.11C101.211 74.11 80.7912 75.57 75.4512 77.85" stroke="white" stroke-miterlimit="10"/>
<path d="M44.7209 91.9699C44.7209 91.9699 88.6009 89.0399 98.4609 91.9699L101.461 95.8199V99.7199C101.461 99.7199 72.1109 132.97 68.4609 135.26C68.4609 135.26 34.6809 135.95 31.1609 132.97" stroke="white" stroke-miterlimit="10"/>
<path d="M482.512 241.96H311.512C311.512 241.96 296.512 191.51 260.452 174.96" stroke="white" stroke-miterlimit="10"/>
<path d="M96.1719 198.25C86.1296 211.345 79.5069 226.735 76.9019 243.03C76.9019 243.03 31.1319 242.18 28.1419 228.47" stroke="white" stroke-miterlimit="10"/>
<path d="M482.512 82.98C482.512 82.98 240.812 71.36 212.082 72.59C212.082 72.59 254.882 20.59 261.912 16" stroke="white" stroke-miterlimit="10"/>
<path d="M426.74 16C426.74 16 445.42 57.48 448.74 81.39L457.59 88.48L469.82 115.08C469.82 115.08 474.13 173.14 464.96 210.47C464.96 210.47 463.43 217.81 466.48 222.39L473.82 236.76V241.96L472.82 248.88C472.82 248.88 469.72 263.44 469.72 263.88C469.72 264.32 470.3 267.55 470.3 267.55L454.51 279.49V284.14" stroke="white" stroke-miterlimit="10"/>
<path d="M265.771 127.77L266.231 129.53C266.231 129.53 279.231 128.15 280.451 127.24L279.991 120.66L277.921 118.45C277.921 118.45 266.541 115.69 265.771 116.08C265.771 116.08 267.531 118.68 263.251 118.83L240.401 118.37C239.571 118.094 238.819 117.625 238.207 117.001C237.595 116.376 237.14 115.615 236.881 114.78C236.881 114.78 225.411 114.01 219.611 116.84L218.761 118.52L219.911 124.33L221.971 125.63C221.971 125.63 235.811 128 237.341 128.15C237.341 128.15 238.941 126.47 240.171 126.47C240.171 126.47 266.511 125.32 265.771 127.77Z" stroke="white" stroke-miterlimit="10"/>
</svg>

<svg width="500" height="375" fill="none" xmlns="http://www.w3.org/2000/svg"><path d="m163.201 16-87.75 61.78s-30.88 12.84-44.33 22v40.66l3.39 10.11-16.51 31.18 15.11 69.56 6.88 9.63s19.72 17 28.43 21.55l27.52 8.26 3.51-3.37-1.07-2.14 4.55-6.44M482.551 282.93l-182.54 7.8h-3.51l-1.84-1.99v-4.28l-6.11-11.31h-3.98" stroke="#fff" stroke-miterlimit="10"/><path d="M193.58 359.52c-50.252 0-90.99-39.627-90.99-88.51s40.738-88.51 90.99-88.51c50.253 0 90.99 39.627 90.99 88.51s-40.737 88.51-90.99 88.51Z" stroke="#fff" stroke-miterlimit="10"/><path d="M297.511 281.94s10.3-95.32-92.43-106.8c0 0-119.39-8.87-114.49 106.78M195.451 16s-10.55 4.15-16.28 9l-61.22 43.11s-4.59 5.27-16.74 6c0 0-20.42 1.46-25.76 3.74M44.72 91.97s43.88-2.93 53.74 0l3.001 3.85v3.9s-29.35 33.25-33 35.54c0 0-33.78.69-37.3-2.29M482.512 241.96h-171s-15-50.45-51.06-67M96.172 198.25a99.362 99.362 0 0 0-19.27 44.78s-45.77-.85-48.76-14.56M482.512 82.98s-241.7-11.62-270.43-10.39c0 0 42.8-52 49.83-56.59" stroke="#fff" stroke-miterlimit="10"/><path d="M426.74 16s18.68 41.48 22 65.39l8.85 7.09 12.23 26.6s4.31 58.06-4.86 95.39c0 0-1.53 7.34 1.52 11.92l7.34 14.37v5.2l-1 6.92s-3.1 14.56-3.1 15c0 .44.58 3.67.58 3.67l-15.79 11.94v4.65M265.771 127.77l.46 1.76s13-1.38 14.22-2.29l-.46-6.58-2.07-2.21s-11.38-2.76-12.15-2.37c0 0 1.76 2.6-2.52 2.75l-22.85-.46a5.506 5.506 0 0 1-3.52-3.59s-11.47-.77-17.27 2.06l-.85 1.68 1.15 5.81 2.06 1.3s13.84 2.37 15.37 2.52c0 0 1.6-1.68 2.83-1.68 0 0 26.34-1.15 25.6 1.3Z" stroke="#fff" stroke-miterlimit="10"/></svg>
